**kern	**kern	**dynam
*part1	*part1	*part1
*staff2	*staff1	*
*I"Piano	*	*
*clefF4	*clefG2	*
*k[f#c#g#d#]	*k[f#c#g#d#]	*
=1	=1	=1
*^	*^	*
*	*	*	*^	*
4A	[4.BB	[4.b	4d#	2.f#/	.
8G#	.	.	8c##X	.	.
4.A	4BB]	4b]	4.d#	.	.
.	8BB	8b	.	.	.
*	*	*	*v	*v	*
=	=	=	=	=
4G#	[4.BB	[4.b	4e	.
8F##X	.	.	8d#	.
4.G#	4BB]	(4b]	4.e	.
.	8BB	8b	.	.
=	=	=	=	=
4BB	2.BB	[4.cc#	4r	.
8E#X 8G#	.	.	8c# 8e#X 8g#	.
4E# 4G#	.	4cc#]	4c# 4e# 4g#	.
8E# 8G#	.	8cc#	8c# 8e# 8g#	.
=	=	=	=	=
4BB	2.BB	4.ff#	4r	.
8F# 8An	.	.	8f#	.
4F# 4A	.	4.cc#	4f#	.
8F# 8A	.	.	8f#)	.
=	=	=	=	=
4BB	2.BB	[4.dd#	4dd#	.
8F##X 8A#X	.	.	8d# 8a#X	.
4F## 4A#	.	4dd#]	4d# 4a#	.
8F## 8A#	.	8dd#	8d# 8a#	.
=	=	=	=	=
4BB	2.BB	[4.gg#	4r	.
8G# 8B	.	.	8g#	.
4G# 4B	.	4g# 4dd# 4gg#]	4ryy	.
8G# 8B	.	8g# 8dd# 8gg#	8ryy	.
*v	*v	*	*	*
*	*v	*v	*
=	=	=
4BBB 4BB	4.a 4.b 4.dd# 4.aa	.
8B	.	.
4d#	4a 4b 4dd# 4gg#	f
8F#	8a 8b 8dd# 8ff#	.
=	=	=
*-	*-	*-
!!!system-decoration: {(s1,s2)}
